**kern	**kern	**dynam
*part1	*part1	*part1
*staff2	*staff1	*
*I"Piano	*	*
*clefF4	*clefG2	*
*k[f#c#g#]	*k[f#c#g#]	*
=1	=1	=1
4Gn) 4B	4d) 4fn 4b	.
(4G 4B	(4an 4aan	.
=	=	=
4Gn 4B	4gn 4ggn	<
4G 4B	4f#X 4ff#X	.
=	=	=
4G#X 4B	4fn 4ffn	.
4G# 4B	4e 4ee	[
=	=	=
4E 4G#	4d#X 4dd#X	>
4E 4G#	4dn 4ddn	.
=	=	=
4AA) 4E 4A	4c#) 4cc#	]
(4AA 4A	(4c# 4cc#	pp
=	=	=
4BB 4A	4d 4cc#	.
4C# 4G#	4e 4b	.
=	=	=
4D) 4F#	4f#) 4a	.
(4BB 4B	(4d 4dd	.
=	=	=
4C# 4B	4e 4dd	.
4D 4A	4f# 4cc#	.
=	=	=
*-	*-	*-
!!!system-decoration: {(s1,s2)}
